X: 1
T: Irish Washerwoman, The
C: Trad
R: Jig
L: 1/8
M: 6/8
K: G
Z: ABC transcription by Verge Roller
r: 32
|: dc | "G" BGG DGG | "G" BGB dcB | "Am" cAA EAA | "D" cAc edc |
"G" BGG DGG | "G" BGB dcB | "Am" cBc "D" Adc | "G" BGG G :|
|: ef | "G" gdg gdg | "G" gdg bag | "D" fdf fdf | "D" fdf agf |
"C" egg "G" dgg | "Am7" cgg "G" Bgg | "Am" cBc "D" Adc | "G" BGG G :|
